NotoEmoji/emoji_u1faf1_200d_1faf2.svg

<?xml version="1.0" encoding="UTF-8" standalone="no"?>
<!-- Generator: Adobe Illustrator 26.3.1, SVG Export Plug-In . SVG Version: 6.00 Build 0)  -->

<svg
   version="1.1"
   id="Layer_1"
   x="0px"
   y="0px"
   viewBox="0 0 128 128"
   style="enable-background:new 0 0 128 128;"
   xml:space="preserve"
   sodipodi:docname="emoji_u1faf1_1f3fb_200d_1faf2_1f3fc.svg"
   inkscape:version="1.4-beta3 (01c8a1c, 2024-08-28, custom)"
   xmlns:inkscape="http://www.inkscape.org/namespaces/inkscape"
   xmlns:sodipodi="http://sodipodi.sourceforge.net/DTD/sodipodi-0.dtd"
   xmlns="http://www.w3.org/2000/svg"
   xmlns:svg="http://www.w3.org/2000/svg"><defs
   id="defs16" /><sodipodi:namedview
   id="namedview16"
   pagecolor="#ffffff"
   bordercolor="#666666"
   borderopacity="1.0"
   inkscape:showpageshadow="2"
   inkscape:pageopacity="0.0"
   inkscape:pagecheckerboard="0"
   inkscape:deskcolor="#d1d1d1"
   inkscape:zoom="6.0703125"
   inkscape:cx="64"
   inkscape:cy="64"
   inkscape:window-width="1680"
   inkscape:window-height="998"
   inkscape:window-x="-8"
   inkscape:window-y="-8"
   inkscape:window-maximized="1"
   inkscape:current-layer="g16" />
<path
   id="Lhand_L"
   style="fill:#100002;"
   d="M69.3,31.7c11.4-1.9,31.6,1.3,44.8-7.6c1.7-1.2,2.6-0.1,3,0.4  c3.2,4.1,6.7,28.5,4.9,34.7c-0.5,1.7-1.2,2.2-2.1,2.8c-2.1,1.6-9,6.8-15.9,16c1.8,3.1,1.2,5.6-0.8,7.7c-2,2.2-4.3,3-7.3,2  c0,2.4-0.2,3.7-1.7,5.2c-2.3,2.2-5.6,2.8-8.1,2.3c0.2,2.5-1.3,3.8-2.4,4.6c-2.5,1.9-4.9,2.4-8.3,1c-0.7,1.4-5.3,6-10.9,2.4  c-1.1-0.7-3.7-2.6-3.7-2.6s-5.3,5-10.8,2.8c-1.1-0.4-2.6-1.8-3-3.1c-1.3,0.9-5,1.2-6.9-0.2c-1.8-1.4-4.2-3.6-3.6-7.3  c-2,0.8-3.8,0.9-6.5-1.6c-2-1.9-3.7-4.4-2.4-6.6c-2.1,0.4-3.7-0.3-4.7-1.5c-1-1.2-3.4-4.8-0.7-8.2c-7.5-5-11.9-9.5-13.8-10.4  c-1.1-0.6-1.9-1.5-2.2-2.8c-0.9-4.7,0-30.5,5.1-36c0.9-1,2.1-0.7,2.7-0.3C43.7,43.5,51.5,25.4,69.3,31.7z" />
<g
   id="Rhand_L">
	<path
   style="fill:#200002;"
   d="M51,93c2.6-3,3.4-6.7,0.9-9.2c-3.5-3.4-6.3-2.1-8.9-0.8c2.6-2.9,2.2-6.4-0.1-8.4   C39.5,71.7,36,74,33,77c0.6-2,1.7-2.7-0.9-5.7c-2.4-2.7-8.4-0.3-9.9,3.6c-2.7,3.4-0.3,7,0.7,8.2s2.6,1.9,4.7,1.5   c-1.3,2.2,0.4,4.7,2.4,6.6c2.7,2.5,4.5,2.4,6.5,1.6c-0.6,3.7,1.8,5.9,3.6,7.3c1.9,1.4,5.6,1.1,6.9,0.2c0.4,1.3,1.9,2.7,3,3.1   c2.3,0.9,4.6,0.6,6.4-0.1c2.9-3.7,4.2-9.2,1.1-11.6C55.2,90,53,91,51,93z"
   id="path1" />
	<path
   style="fill:#200002;"
   d="M117.1,24.5c-0.4-0.5-1.3-1.6-3-0.4c-13.2,8.9-33.4,5.7-44.8,7.6c-2.4,0-3.7,0.1-6.6,1.2   c-4.4,1.7-11.7,7.8-19.5,10.8c-3.6,1.4-4.5,6.8-0.1,9.1c9.3,5,19.5-4.6,29-5.2C80.4,47,87.2,57,92,63c2.9,3.7,7.7,10,12,15   c6.4-8.7,13.9-14.5,15.9-16c0.9-0.6,1.6-1.1,2.1-2.8C123.8,53,120.3,28.6,117.1,24.5z"
   id="path2" />
</g>
<g
   id="Lhand_M">
	<g
   id="g7">
		<defs
   id="defs2" />
		
		<path
   id="path6"
   style="fill:#10000A"
   d="M 12.761719 25.025391 C 12.274219 25.025391 11.750781 25.199219 11.300781 25.699219 C 11.091951 25.924427 10.892176 26.195889 10.697266 26.486328 C 41.666459 44.871802 50.119089 30.822187 61.199219 32.800781 C 63.261965 32.478477 66.256316 31.92111 68.679688 31.501953 C 51.319782 25.838764 43.348543 43.286203 14 25.400391 C 13.7 25.200391 13.249219 25.025391 12.761719 25.025391 z M 73.900391 47.199219 L 67.099609 48.099609 C 67.099609 48.099609 51.900781 53.799609 47.300781 55.099609 C 50.800781 60.199609 56.799219 58.599609 59.199219 57.599609 C 61.499219 56.599609 69.599609 52.799219 73.099609 51.199219 C 76.599609 49.599219 78.900781 51.099219 80.800781 52.199219 C 80.800781 52.199219 82.299609 51.699609 81.599609 51.099609 C 80.999609 50.499609 79.199219 49.099609 79.199219 49.099609 L 73.900391 47.199219 z M 6.171875 61.496094 C 6.1816381 61.55492 6.1889869 61.645786 6.1992188 61.699219 C 6.4992188 62.999219 7.3003906 63.9 8.4003906 64.5 C 10.234828 65.368944 14.42756 69.600038 21.462891 74.390625 C 22.041618 73.862243 22.620492 73.353202 23.199219 72.800781 C 22.999219 72.300781 22.5 72.099609 22.5 72.099609 C 22.5 72.099609 8.5 63.400781 7.5 62.800781 C 6.9685104 62.481887 6.5524475 62.040972 6.171875 61.496094 z M 94.599609 67.5 C 96.499609 70.2 99.300391 74.299609 99.900391 75.099609 C 101.50039 77.299609 100.69922 78.699609 100.19922 79.599609 C 99.599219 80.499609 98.299609 82.099609 97.099609 83.099609 C 95.299609 84.599609 92.900781 84.000781 91.800781 83.300781 C 90.700781 82.600781 88.500781 82.9 89.800781 84.5 C 92.100781 87.5 91.100781 88.800391 90.800781 89.400391 C 90.300781 90.200391 89.299609 91.300391 88.599609 91.900391 C 87.199609 93.100391 84.199609 92.799609 83.099609 92.099609 C 81.999609 91.399609 79.499609 91.2 80.599609 92.5 C 82.299609 94.5 80.999219 96.1 80.699219 96.5 C 80.399219 96.9 79.699219 97.599219 78.699219 98.699219 C 77.899219 99.599219 75.799609 99.7 74.599609 99 C 73.899609 98.6 70.399609 95.699219 69.599609 95.199219 C 68.799609 94.699219 67.199219 95.099219 68.699219 97.199219 C 70.199219 99.399219 70 99.899219 69.5 100.69922 C 69.3 100.99922 68.899219 101.49922 68.199219 102.19922 C 66.799219 103.59922 64.900391 102 64.900391 102 L 59.199219 98 C 59.199219 98 58.899609 98.199219 58.099609 98.699219 C 58.226056 99.837242 58.483899 100.97493 58.761719 102.10547 C 60.020853 101.32762 60.800781 100.59961 60.800781 100.59961 C 60.800781 100.59961 63.4 102.49922 64.5 103.19922 C 70.1 106.79922 74.700391 102.20078 75.400391 100.80078 C 78.800391 102.20078 81.199219 101.70078 83.699219 99.800781 C 84.799219 99.000781 86.299609 97.699219 86.099609 95.199219 C 88.599609 95.699219 91.899219 95.100391 94.199219 92.900391 C 95.699219 91.400391 95.900391 90.099219 95.900391 87.699219 C 98.900391 88.699219 101.19922 87.899219 103.19922 85.699219 C 105.19922 83.599219 105.8 81.1 104 78 C 104.19723 77.737023 104.39272 77.510356 104.58984 77.253906 C 100.31315 75.117614 99.025498 69.231869 94.599609 67.5 z " />
			
		
	</g>
</g>
<g
   id="Lhand_D">
	<g
   id="g11">
		<defs
   id="defs7" />
		
		<path
   id="path10"
   style="fill:#10000B"
   d="M 11.236328 66.068359 C 11.041389 66.075513 10.915676 66.142657 10.835938 66.236328 C 13.252486 68.179139 16.919653 71.38068 22.199219 74.900391 C 22.999219 74.100391 23.7 72.499219 22.5 71.699219 C 21.8 71.299219 14.500391 67.199219 11.900391 66.199219 C 11.625391 66.099219 11.406641 66.062109 11.236328 66.068359 z M 79.984375 72.236328 C 78.925 72.287891 78.175 73.675 79 74.5 C 86.2 81.5 90.900391 85.799219 95.900391 87.699219 C 97.910742 88.369336 99.601475 88.214792 101.10352 87.388672 C 100.66221 87.175554 99.451893 87.727678 97.5 86.400391 C 92 82.800391 89.999609 80.999219 81.099609 72.699219 C 80.724609 72.349219 80.3375 72.219141 79.984375 72.236328 z M 71.570312 81.550781 C 70.4875 81.513281 69.699609 82.825781 70.599609 83.800781 C 81.999609 95.300781 84.599609 94.899219 86.099609 95.199219 C 87.095834 95.398464 88.219074 95.414163 89.355469 95.232422 C 89.145727 94.607203 88.027583 95.29105 85.699219 93.5 C 81.199219 90.2 78.599219 87.999609 72.699219 82.099609 C 72.324219 81.724609 71.93125 81.563281 71.570312 81.550781 z M 64.464844 90.519531 C 63.438281 90.482031 62.875 91.624609 64 92.599609 C 64.9 93.399609 73.800391 100.30078 75.400391 100.80078 C 76.847014 101.39645 78.106103 101.62796 79.275391 101.57422 C 79.157733 100.99012 78.486668 101.25804 76.599609 100 C 75.199609 99.1 71.099609 95.8 65.599609 91 C 65.199609 90.675 64.807031 90.532031 64.464844 90.519531 z " />
			
		
	</g>
</g>
<g
   id="Rhand_M">
	<g
   id="g14">
		<defs
   id="defs11" />
		
		<path
   id="path13"
   style="fill:#20000A"
   d="M 115.69141 23.566406 C 115.26309 23.522461 114.73711 23.649609 114.09961 24.099609 C 100.89961 32.999609 80.700781 29.799219 69.300781 31.699219 C 68.443524 31.395807 67.615213 31.165742 66.800781 30.96875 C 64.483931 31.747966 62.15787 32.490998 60.199219 33.5 C 57.299219 35.6 49.800781 40.400391 49.800781 40.400391 C 49.800781 40.400391 52.800781 41.999609 55.800781 40.099609 C 65.300781 33.899609 68.999219 33.300391 73.199219 33.400391 C 98.816075 33.595939 107.3239 32.147943 116.94336 24.326172 C 116.67938 24.015443 116.29303 23.628133 115.69141 23.566406 z M 94.5 55.900391 L 89.900391 58 L 92.900391 65 C 92.900391 65 93.599609 66.000391 94.599609 67.400391 C 99.025498 69.13226 100.31315 75.110606 104.58984 77.253906 C 104.67285 77.145914 104.75493 77.046291 104.83789 76.939453 L 104.40039 76 C 104.40039 76 102.9 68.100391 103 62.900391 C 105.4 59.400391 104.89961 57.300391 103.09961 56.400391 C 101.29961 55.600391 97.8 56.500391 94.5 55.900391 z M 23.128906 73.496094 C 22.949219 73.423828 22.574219 73.712891 22.199219 74.900391 C 19.499219 78.300391 21.900391 81.899609 22.900391 83.099609 C 23.900391 84.299609 25.499609 84.999609 27.599609 84.599609 C 26.299609 86.799609 28 89.299219 30 91.199219 C 32.7 93.699219 34.5 93.600781 36.5 92.800781 C 35.9 96.500781 38.299609 98.699609 40.099609 100.09961 C 41.999609 101.49961 45.7 101.20078 47 100.30078 C 47.4 101.60078 48.9 103.00039 50 103.40039 C 53.412163 104.76526 56.740829 103.35813 58.78125 102.09375 C 58.495735 100.92925 58.228998 99.764107 58.099609 98.599609 C 57.599609 98.899609 57.000781 99.399609 56.300781 100.09961 C 54.000781 102.19961 52.399219 101.49961 50.699219 100.09961 C 48.999219 98.699609 49.500391 97.000781 49.900391 95.800781 C 50.300391 94.600781 49.5 95.299609 47 97.099609 C 44.1 99.299609 42.699609 98.000781 41.599609 97.300781 C 40.999609 97.000781 39.900391 95.8 38.900391 94.5 C 37.300391 92.4 38.6 90.2 39 89.5 C 39.4 88.8 39.100391 88.100781 37.900391 88.800781 C 35.900391 90.000781 33.999219 88.800781 33.199219 88.300781 C 32.499219 87.800781 31.3 86.599609 30.5 85.599609 C 28.9 83.599609 30.000391 81.900391 30.400391 80.900391 C 30.800391 79.900391 29.899609 79.3 28.099609 80.5 C 25.699609 82 20.899219 79.000391 23.199219 73.900391 C 23.274219 73.712891 23.236719 73.539453 23.128906 73.496094 z " />
			
		
	</g>
</g>
<g
   id="Rhand_D">
	<g
   id="g16">
		<defs
   id="defs14" />
		
		<path
   id="path15"
   style="fill:#20000B"
   d="M 68.052734 31.304688 C 55.83494 32.287297 55.521977 37.400902 42.400391 42.900391 C 39.100391 44.300391 38.000391 47.400781 39.900391 50.800781 C 42.400391 55.200781 46.100391 56.499219 55.400391 54.199219 C 60.400391 52.999219 70.100781 46.500781 76.800781 49.800781 C 79.900781 51.300781 85.200391 56.099219 91.900391 64.699219 C 98.500391 73.099219 102.9 76.1 104 78 C 110.10436 69.860852 116.01225 65.021895 118.79297 62.867188 C 116.39139 63.376245 112.04385 65.205755 103.59961 73.800781 C 103.09961 74.300781 102.40039 74.300781 101.90039 73.800781 C 99.600391 71.100781 96.8 66.899609 93.5 60.599609 C 93 59.699609 93.4 58.200781 95 58.300781 C 96.6 58.400781 100.69961 57.699609 101.59961 57.099609 C 102.59961 56.499609 101.79922 56 101.19922 56 C 95.999219 55.9 90.000781 55.999609 80.800781 48.599609 C 79.300781 47.399609 73.399609 43.499609 64.599609 47.599609 C 60.599609 49.399609 55.400781 51.400391 53.800781 51.900391 C 51.100781 52.800391 44.799609 54.3 42.099609 50 C 41.199609 48.6 40.799609 46.2 43.099609 45 C 45.499609 43.8 48.500781 42.500781 52.300781 40.300781 C 58.400781 36.800781 63.200781 32.499219 69.300781 31.699219 C 68.877701 31.549477 68.464944 31.427674 68.052734 31.304688 z M 28.099609 68.761719 C 26.274609 68.824219 24.25 69.599219 22.5 71.699219 C 21.5 72.899219 21.499219 74.000391 22.199219 74.900391 C 22.999219 74.100391 24 73.2 25.5 72 C 27.2 70.6 30.399219 70.899609 31.699219 72.599609 C 32.899219 74.199609 32.699219 75.700781 31.699219 76.800781 C 31.199219 77.300781 27.500391 81.200391 26.400391 82.400391 C 25.300391 83.600391 24.999609 83.400781 24.099609 83.300781 C 23.612114 83.239844 23.444005 83.4085 23.4375 83.634766 C 24.43626 84.491905 25.8393 84.934906 27.599609 84.599609 C 28.899609 82.899609 33.900391 76.999609 36.900391 75.099609 C 38.900391 73.799609 41.500781 74.799219 42.300781 75.699219 C 44.300781 77.899219 43.499219 80.300391 42.699219 81.400391 C 41.999219 82.500391 37 89.200391 35.5 90.900391 C 34 92.600391 32.899609 92.499219 32.099609 92.199219 C 31.684092 92.0434 31.518244 92.161709 31.490234 92.363281 C 33.408334 93.60808 34.893734 93.443288 36.5 92.800781 C 37.8 91.100781 42.100391 85.799609 43.400391 84.599609 C 46.500391 81.599609 49.7 83.600781 50.5 84.300781 C 53.3 86.700781 51.6 89.800781 51 90.800781 C 50.4 91.800781 47.800781 95.400781 46.300781 97.800781 C 44.800781 100.20078 41.9 99.9 41 100 C 40.601445 100.04428 40.505617 100.18738 40.539062 100.34961 C 42.521067 101.43663 45.790581 101.13807 47 100.30078 C 49.3 97.800781 51.499609 93.700781 52.599609 92.800781 C 54.999609 90.800781 59.999609 93.5 57.599609 97.5 C 57.299609 98.1 56.399219 99.800391 55.199219 101.40039 C 53.899219 103.00039 52.6 103.29961 52 103.59961 C 51.848402 103.65014 51.800566 103.75263 51.824219 103.87305 C 56.614743 104.5355 60.800781 100.59961 60.800781 100.59961 C 60.800781 100.59961 59.699609 99.900781 59.099609 99.300781 C 59.699609 98.200781 60.200781 96.700781 60.300781 95.300781 C 60.700781 90.800781 55.800391 89.300781 53.900391 90.300781 C 55.400391 87.800781 54.7 84.699609 52.5 82.599609 C 50.3 80.499609 47.400781 80.199609 45.800781 80.599609 C 46.600781 77.799609 45.7 75.300391 44 73.900391 C 39.4 70.100391 35.899609 73.099609 34.599609 74.099609 C 34.599609 72.699609 34.1 71.399609 32.5 70.099609 C 31.55 69.349609 29.924609 68.699219 28.099609 68.761719 z " />
			
		
	</g>
</g>
</svg>

<svg enable-background="new 0 0 128 128" viewBox="0 0 128 128" xmlns="http://www.w3.org/2000/svg"><path d="m69.3 31.7c11.4-1.9 31.6 1.3 44.8-7.6 1.7-1.2 2.6-.1 3 .4 3.2 4.1 6.7 28.5 4.9 34.7-.5 1.7-1.2 2.2-2.1 2.8-2.1 1.6-9 6.8-15.9 16 1.8 3.1 1.2 5.6-.8 7.7-2 2.2-4.3 3-7.3 2 0 2.4-.2 3.7-1.7 5.2-2.3 2.2-5.6 2.8-8.1 2.3.2 2.5-1.3 3.8-2.4 4.6-2.5 1.9-4.9 2.4-8.3 1-.7 1.4-5.3 6-10.9 2.4-1.1-.7-3.7-2.6-3.7-2.6s-5.3 5-10.8 2.8c-1.1-.4-2.6-1.8-3-3.1-1.3.9-5 1.2-6.9-.2-1.8-1.4-4.2-3.6-3.6-7.3-2 .8-3.8.9-6.5-1.6-2-1.9-3.7-4.4-2.4-6.6-2.1.4-3.7-.3-4.7-1.5s-3.4-4.8-.7-8.2c-7.5-5-11.9-9.5-13.8-10.4-1.1-.6-1.9-1.5-2.2-2.8-.9-4.7 0-30.5 5.1-36 .9-1 2.1-.7 2.7-.3 29.7 18.1 37.5 0 55.3 6.3z" fill="#100002"/><path d="m51 93c2.6-3 3.4-6.7.9-9.2-3.5-3.4-6.3-2.1-8.9-.8 2.6-2.9 2.2-6.4-.1-8.4-3.4-2.9-6.9-.6-9.9 2.4.6-2 1.7-2.7-.9-5.7-2.4-2.7-8.4-.3-9.9 3.6-2.7 3.4-.3 7 .7 8.2s2.6 1.9 4.7 1.5c-1.3 2.2.4 4.7 2.4 6.6 2.7 2.5 4.5 2.4 6.5 1.6-.6 3.7 1.8 5.9 3.6 7.3 1.9 1.4 5.6 1.1 6.9.2.4 1.3 1.9 2.7 3 3.1 2.3.9 4.6.6 6.4-.1 2.9-3.7 4.2-9.2 1.1-11.6-2.3-1.7-4.5-.7-6.5 1.3z" fill="#200002"/><path d="m117.1 24.5c-.4-.5-1.3-1.6-3-.4-13.2 8.9-33.4 5.7-44.8 7.6-2.4 0-3.7.1-6.6 1.2-4.4 1.7-11.7 7.8-19.5 10.8-3.6 1.4-4.5 6.8-.1 9.1 9.3 5 19.5-4.6 29-5.2 8.3-.6 15.1 9.4 19.9 15.4 2.9 3.7 7.7 10 12 15 6.4-8.7 13.9-14.5 15.9-16 .9-.6 1.6-1.1 2.1-2.8 1.8-6.2-1.7-30.6-4.9-34.7z" fill="#200002"/><path d="m12.76 25.03c-.49 0-1.01.17-1.46.67-.21.22-.41.5-.6.79 30.97 18.38 39.42 4.33 50.5 6.31 2.06-.32 5.06-.88 7.48-1.3-17.36-5.66-25.33 11.79-54.68-6.1-.3-.2-.75-.37-1.24-.37zm61.14 22.17-6.8.9s-15.2 5.7-19.8 7c3.5 5.1 9.5 3.5 11.9 2.5 2.3-1 10.4-4.8 13.9-6.4s5.8-.1 7.7 1c0 0 1.5-.5.8-1.1-.6-.6-2.4-2-2.4-2zm-67.73 14.3c.01.05.02.15.03.2.3 1.3 1.1 2.2 2.2 2.8 1.83.87 6.03 5.1 13.06 9.89.58-.53 1.16-1.04 1.74-1.59-.2-.5-.7-.7-.7-.7s-14-8.7-15-9.3c-.53-.32-.95-.76-1.33-1.3zm88.43 6c1.9 2.7 4.7 6.8 5.3 7.6 1.6 2.2.8 3.6.3 4.5-.6.9-1.9 2.5-3.1 3.5-1.8 1.5-4.2.9-5.3.2s-3.3-.4-2 1.2c2.3 3 1.3 4.3 1 4.9-.5.8-1.5 1.9-2.2 2.5-1.4 1.2-4.4.9-5.5.2s-3.6-.9-2.5.4c1.7 2 .4 3.6.1 4s-1 1.1-2 2.2c-.8.9-2.9 1-4.1.3-.7-.4-4.2-3.3-5-3.8s-2.4-.1-.9 2c1.5 2.2 1.3 2.7.8 3.5-.2.3-.6.8-1.3 1.5-1.4 1.4-3.3-.2-3.3-.2l-5.7-4s-.3.2-1.1.7c.13 1.14.38 2.27.66 3.41 1.26-.78 2.04-1.51 2.04-1.51s2.6 1.9 3.7 2.6c5.6 3.6 10.2-1 10.9-2.4 3.4 1.4 5.8.9 8.3-1 1.1-.8 2.6-2.1 2.4-4.6 2.5.5 5.8-.1 8.1-2.3 1.5-1.5 1.7-2.8 1.7-5.2 3 1 5.3.2 7.3-2 2-2.1 2.6-4.6.8-7.7.2-.26.39-.49.59-.75-4.28-2.13-5.56-8.02-9.99-9.75z" fill="#10000a"/><path d="m11.24 66.07c-.2.01-.32.07-.4.17 2.41 1.94 6.08 5.14 11.36 8.66.8-.8 1.5-2.4.3-3.2-.7-.4-8-4.5-10.6-5.5-.27-.1-.49-.14-.66-.13zm68.74 6.17c-1.05.05-1.8 1.44-.98 2.26 7.2 7 11.9 11.3 16.9 13.2 2.01.67 3.7.51 5.2-.31-.44-.21-1.65.34-3.6-.99-5.5-3.6-7.5-5.4-16.4-13.7-.38-.35-.76-.48-1.12-.46zm-8.41 9.31c-1.08-.04-1.87 1.28-.97 2.25 11.4 11.5 14 11.1 15.5 11.4 1 .2 2.12.21 3.26.03-.21-.62-1.33.06-3.66-1.73-4.5-3.3-7.1-5.5-13-11.4-.38-.38-.77-.54-1.13-.55zm-7.11 8.97c-1.02-.04-1.58 1.1-.46 2.08.9.8 9.8 7.7 11.4 8.2 1.45.6 2.71.83 3.88.77-.12-.58-.79-.31-2.68-1.57-1.4-.9-5.5-4.2-11-9-.4-.32-.79-.47-1.14-.48z" fill="#10000b"/><path d="m115.69 23.57c-.43-.05-.95.08-1.59.53-13.2 8.9-33.4 5.7-44.8 7.6-.86-.3-1.68-.53-2.5-.73-2.32.78-4.64 1.52-6.6 2.53-2.9 2.1-10.4 6.9-10.4 6.9s3 1.6 6-.3c9.5-6.2 13.2-6.8 17.4-6.7 25.62.2 34.12-1.25 43.74-9.07-.26-.31-.65-.7-1.25-.76zm-21.19 32.33-4.6 2.1 3 7s.7 1 1.7 2.4c4.43 1.73 5.71 7.71 9.99 9.85.08-.1.16-.2.25-.31l-.44-.94s-1.5-7.9-1.4-13.1c2.4-3.5 1.9-5.6.1-6.5-1.8-.8-5.3.1-8.6-.5zm-71.37 17.6c-.18-.08-.56.21-.93 1.4-2.7 3.4-.3 7 .7 8.2s2.6 1.9 4.7 1.5c-1.3 2.2.4 4.7 2.4 6.6 2.7 2.5 4.5 2.4 6.5 1.6-.6 3.7 1.8 5.9 3.6 7.3 1.9 1.4 5.6 1.1 6.9.2.4 1.3 1.9 2.7 3 3.1 3.41 1.37 6.74-.04 8.78-1.31-.28-1.16-.55-2.33-.68-3.49-.5.3-1.1.8-1.8 1.5-2.3 2.1-3.9 1.4-5.6 0s-1.2-3.1-.8-4.3-.4-.5-2.9 1.3c-2.9 2.2-4.3.9-5.4.2-.6-.3-1.7-1.5-2.7-2.8-1.6-2.1-.3-4.3.1-5s.1-1.4-1.1-.7c-2 1.2-3.9 0-4.7-.5-.7-.5-1.9-1.7-2.7-2.7-1.6-2-.5-3.7-.1-4.7s-.5-1.6-2.3-.4c-2.4 1.5-7.2-1.5-4.9-6.6.07-.19.04-.36-.07-.4z" fill="#20000a"/><path d="m68.05 31.3c-12.22.99-12.53 6.1-25.65 11.6-3.3 1.4-4.4 4.5-2.5 7.9 2.5 4.4 6.2 5.7 15.5 3.4 5-1.2 14.7-7.7 21.4-4.4 3.1 1.5 8.4 6.3 15.1 14.9 6.6 8.4 11 11.4 12.1 13.3 6.1-8.14 12.01-12.98 14.79-15.13-2.4.51-6.75 2.34-15.19 10.93-.5.5-1.2.5-1.7 0-2.3-2.7-5.1-6.9-8.4-13.2-.5-.9-.1-2.4 1.5-2.3s5.7-.6 6.6-1.2c1-.6.2-1.1-.4-1.1-5.2-.1-11.2 0-20.4-7.4-1.5-1.2-7.4-5.1-16.2-1-4 1.8-9.2 3.8-10.8 4.3-2.7.9-9 2.4-11.7-1.9-.9-1.4-1.3-3.8 1-5 2.4-1.2 5.4-2.5 9.2-4.7 6.1-3.5 10.9-7.8 17-8.6-.42-.15-.84-.27-1.25-.4zm-39.95 37.46c-1.83.06-3.85.84-5.6 2.94-1 1.2-1 2.3-.3 3.2.8-.8 1.8-1.7 3.3-2.9 1.7-1.4 4.9-1.1 6.2.6 1.2 1.6 1 3.1 0 4.2-.5.5-4.2 4.4-5.3 5.6s-1.4 1-2.3.9c-.49-.06-.66.11-.66.33 1 .86 2.4 1.3 4.16.97 1.3-1.7 6.3-7.6 9.3-9.5 2-1.3 4.6-.3 5.4.6 2 2.2 1.2 4.6.4 5.7-.7 1.1-5.7 7.8-7.2 9.5s-2.6 1.6-3.4 1.3c-.42-.16-.58-.04-.61.16 1.92 1.25 3.4 1.08 5.01.44 1.3-1.7 5.6-7 6.9-8.2 3.1-3 6.3-1 7.1-.3 2.8 2.4 1.1 5.5.5 6.5s-3.2 4.6-4.7 7-4.4 2.1-5.3 2.2c-.4.04-.49.19-.46.35 1.98 1.09 5.25.79 6.46-.05 2.3-2.5 4.5-6.6 5.6-7.5 2.4-2 7.4.7 5 4.7-.3.6-1.2 2.3-2.4 3.9-1.3 1.6-2.6 1.9-3.2 2.2-.15.05-.2.15-.18.27 4.79.67 8.98-3.27 8.98-3.27s-1.1-.7-1.7-1.3c.6-1.1 1.1-2.6 1.2-4 .4-4.5-4.5-6-6.4-5 1.5-2.5.8-5.6-1.4-7.7s-5.1-2.4-6.7-2c.8-2.8-.1-5.3-1.8-6.7-4.6-3.8-8.1-.8-9.4.2 0-1.4-.5-2.7-2.1-4-.95-.75-2.58-1.4-4.4-1.34z" fill="#20000b"/></svg>
